X:1
T:Ashbury Heights, 77.77 D
T:Ashbury Heights, 77.77 D
T:H. A. Davis, 1904
T:Public Domain Courtesy of the Cyber Hymnal™
C:H. A. Davis, 1904
Z:Public Domain
Z:Courtesy of the Cyber Hymnal™
%%score ( 1 2 ) ( 3 4 )
L:1/8
Q:1/4=100
M:6/8
K:F
V:1 treble 
V:2 treble 
V:3 bass 
V:4 bass 
V:1
 [FA]2 [GB] [Ac]2 [Fc] | [Fd]2 [Fd] [Fc]3 | [CF]2 [CG] [FA]2 F | [Fc]2 [FA] [EG]3 | %4
 [FA]2 [GB] [Ac]2 [Fc] | [Fd]2 [Fd] [Fc]3 | F2 [EG] [FA]2 [GB] | [FA]2 [EG] F3 | %8
 [Fd]2 [Fd] [Fc]2 [FA] | (GF)[B,D] [DF]3 | [CF]2 [FA] [Fc]2 [FA] | [CG]2 [DF] [EG]3 | %12
 [FA]2 [GB] [Ac]2 [Fc] | [Fd]2 [Fd] [Fc]3 | F2 [EG] [FA]2 [GB] | [FA]2 [EG] F3 |] %16
V:2
 x6 | x6 | x5 F | x6 | x6 | x6 | F2 x4 | x3 F3 | x6 | D2 x4 | x6 | x6 | x6 | x6 | F2 x4 | x3 F3 |] %16
V:3
 [F,C]2 [F,C] [F,C]2 [F,A,] | [B,,B,]2 [B,,B,] [F,A,]3 | [F,A,]2 [F,B,] [F,C]2 [F,A,] | %3
 [A,C]2 [F,C] [C,C]3 | [F,C]2 [F,C] [F,C]2 [F,A,] | [B,,B,]2 [B,,B,] [F,A,]3 | %6
 [A,C]2 [G,C] [F,C]2 [B,,D] | [C,C]2 [C,B,] [F,A,]3 | B,2 B, [F,A,]2 [F,C] | %9
 [B,,B,]2 [B,,F,] [B,,B,]3 | [F,A,]2 [F,C] [F,A,]2 [F,C] | [E,C]2 [D,=B,] [C,C]3 | %12
 [F,C]2 [F,C] [F,C]2 [F,A,] | [B,,B,]2 [B,,B,] [F,A,]3 | [A,C]2 [G,C] [F,C]2 [B,,D] | %15
 [C,C]2 [C,B,] [F,A,]3 |] %16
V:4
 x6 | x6 | x6 | x6 | x6 | x6 | x6 | x6 | B,2 B, x3 | x6 | x6 | x6 | x6 | x6 | x6 | x6 |] %16

